images/beard/beard-2.svg

<svg width="58" height="68" viewBox="0 0 58 68" fill="none" xmlns="http://www.w3.org/2000/svg">
<path d="M51.8855 21.993C52.0062 20.3089 52.3581 18.5157 52.6095 16.6434C53.2932 11.264 54.2183 5.08217 52.4888 0H52.2877C50.9202 3.70513 50.9805 8.27214 50.0756 12.2448C49.5389 14.94 48.4286 17.4926 46.8177 19.7343C46.2848 20.4178 45.7519 21.2698 44.8871 21.5175C44.2436 17.634 40.5835 16.6235 37.205 15.2168C35.0633 14.3351 33.1829 13.2354 31.0513 13.0769C30.3754 13.0936 29.7023 13.1699 29.0402 13.3048C28.3781 13.1699 27.7051 13.0936 27.0292 13.0769C24.8673 13.2255 23.0071 14.3351 20.8754 15.2168C17.4668 16.6235 13.8368 17.634 13.1531 21.5175C12.2884 21.2698 11.7554 20.4178 11.2225 19.7343C9.61981 17.4881 8.51023 14.9373 7.96464 12.2448C7.03957 8.27214 7.08984 3.70513 5.75251 0H5.51118C3.7817 5.08217 4.68666 11.264 5.39052 16.6434C5.6419 18.5157 5.99383 20.3089 6.11449 21.993C6.90885 32.94 -0.873832 44.8974 0.0814068 50.6434C1.01654 58.1031 8.52773 59.9557 14.3195 62.8881C18.6935 65.1072 22.6753 67.8415 27.7129 68H30.2871C35.3146 67.792 39.3367 65.0973 43.6805 62.8881C49.4723 59.9161 56.9835 58.1031 57.9186 50.6434C58.8738 44.8974 51.0912 32.94 51.8855 21.993ZM29 25.7576C26.5892 25.8223 24.1777 25.6531 21.8005 25.2523C22.4642 23.2214 25.8226 23.7069 28.9196 23.7069H29.0804C32.097 23.7069 35.5358 23.2214 36.1995 25.2523C33.8223 25.6534 31.4108 25.8226 29 25.7576Z" fill="#826550"/>
</svg>

<svg width="58" height="68" fill="none" xmlns="http://www.w3.org/2000/svg"><path d="M51.89 22c.12-1.7.47-3.48.72-5.36.68-5.38 1.6-11.56-.12-16.64h-.2c-1.37 3.7-1.3 8.27-2.21 12.24a19.29 19.29 0 0 1-3.26 7.5c-.54.68-1.07 1.53-1.93 1.78-.65-3.89-4.3-4.9-7.69-6.3-2.14-.88-4.02-1.98-6.15-2.14-.67.01-1.35.09-2.01.22a11.5 11.5 0 0 0-2.01-.22c-2.16.15-4.02 1.26-6.15 2.14-3.41 1.4-7.04 2.41-7.73 6.3-.86-.25-1.4-1.1-1.93-1.79a19.6 19.6 0 0 1-3.26-7.49C7.04 8.27 7.1 3.71 5.76 0H5.5C3.78 5.08 4.7 11.26 5.4 16.64c.25 1.88.6 3.67.72 5.35.8 10.95-6.98 22.9-6.03 28.65.94 7.46 8.45 9.32 14.24 12.25 4.37 2.22 8.36 4.95 13.4 5.11h2.57c5.02-.2 9.05-2.9 13.4-5.11 5.78-2.97 13.3-4.79 14.23-12.25.95-5.74-6.83-17.7-6.03-28.65ZM29 25.75c-2.41.06-4.82-.1-7.2-.5.66-2.04 4.02-1.55 7.12-1.55h.16c3.02 0 6.46-.49 7.12 1.54-2.38.4-4.79.57-7.2.5Z" fill="#826550"/></svg>
